X: 208
T:Trim the Velvet
M:C|
L:1/8
S:Mary Bergin
R:reel
D:Mary Bergin: Feadoga Stain 2.
H:Similar to "Kiss the Maid behind the Barrel", #549
Z:id:hn-reel-2
K:G
~G3B AGFD|GBdB BAFA|~G3B AGFA|defd cAFA|
~G3B ~A3c|BcdB BAFA|~G3B AGFA|defd cAFA||
dgeg dg~g2|dedB cAFA|dgeg dg~g2|defd cAFA|
d3e dBGB|dGBd cAFA|dgeg dg~g2|defd cAFA||
~g3a bgaf|g2ab c'baf|g2af g2af|defd cAFA|
~g3a bgaf|g2ab c'ba2|bg~g2 af~f2|defd cAFA||
BGdG BG~G2|(3BAG dB cAFA|BGdG BG~G2|defd cAFA|
BGdG BG~G2 |DGBd cAFA|~B3G c2ce|defd cAFA||

